!!!SOCIAL_FUNCTION:	songs used in the treatment of the sick
!!!PDT:	1929
!!!OTL: No_78_I_See_Spirit-Tufts_of_White_Feathers.krn
!!!REG: Southwest
!!!LANG: Non-Tone
!!!LING_GROUP: Uto-Aztecan
**kern
*staff1
*clefF4
*k[b-e-a-d-g-]
*M3/4
4A-\
=1
8e-\L
8e-\J
(8e-\L
8d-\J)
8d-\L
8d-\J
=2
8e-\L
8e-\J
4e-\
8.e-\L
16d-\Jk
=3
4d-\
4d-\
8.d-\L
16A-\Jk
=4||
*M2/4
4A-\
4F;\
=5
4A-\
8B-\L
8B-\J
=6
8A-\L
8A-\J
8A-\L
8A-\J
=7||
*M3/4
8B-\L
[8B-\J
4B-\]
8.B-\L
16A-\Jk
=8||
*M2/4
4A-\
4F;\
=9||
*M3/4
2A-\
4A-\
=10
4A-\
4r
4d-\
=11||
*M2/4
8e-\L
8e-\J
8.e-\L
16d-\Jk
=12||
*M3/4
4d-\
4d-\
8A-\L
8B-\J
=13||
*M2/4
4A-\
4A-\
=14
8A-\L
8A-\J
8A-\L
8A-\J
=15
4A-\
4r
=16
4A-\
8B-\L
8A-\J
=17||
*M3/4
8A-\L
8A-\J
8A-\L
[8A-\J
8.A-\L]
16F\Jk
=18
8A-\L
8A-\J
4A-;\
8.A-\L
16A-\Jk
=19||
*M2/4
4A-\
4r
=20
4A-\
8B-\L
8A-\J
=21
8A-\L
8A-\J
8A-\
8r
=22
8A-\L
8A-\J
8A-\L
8A-\J
=23
4.A-\
8F\
=24
8.A-\L
16A-\Jk
[4A-\
=25
4A-\]
4A-\
=26
[2A-\
=27
4A-\]
4r
==
*-
